X: 2075
T: Çadır Altı Minare
C: Muzaffer Sarısözen
O: Turkey
F: http://compmusic.upf.edu/node/140
N: hicaz--turku--sofyan--cadir_alti--gaziantep
N: makam= hicaz
N: form= turku
N: usul= sofyan = 4/4
M: 4/4
L: 1/16
K: C _7/8B ^f ^c 
Q: 1/4=81
%%MIDI tuningsystem comma53
e2=f2 d2e2 c2d2 B2A2  | c2d2 B2c2 B2A2 A4  | \
w:  ARANAĞME  |   | 
e2=f2 d2e2 c2d2 B2A2  | 
w:  ARANAĞME  | 
c2d2 B2c2 B2A2 A4  | c2d2 e2=f2 e2f2 .e4  | \
w:   |  Ça dır_ al tı  mi na re    | 
=f2g2 e2f2 d2e2 .d4  | 
w:  El_ et tim_ es ki  yâ re    | 
c2d2 e2=f2 e2f2 .e4  | =f2g2 e2f2 d2e2 .d4  | \
w:  Ça dır_ al tı  mi na re    |  El_ et tim_ es ki  yâ re    | 
e2=f2 d2e2 c2d2 B2A2  | 
w:  A nam  kur ban  ben  kur ban  da    | 
c2d2 B2c2 B2A2 A4  | e2=f2 d2e2 c2d2 B2A2  | \
w:  Set re  pan tol lu  yâ re    |  A nam  kur ban  ben  kur ban  da    | 
c2d2 B2c2 B2A2 A4  | 
w:  Set re  pan tol lu  yâ re    | 
A4 A2c2 B4 A4  | A2A2 A2c2 B2A2 A4  | \
w:  Hel va cı  hel va    |  Ken dir  to hum lu  hel va    | 
A2A2 A2c2 B2A2 A4  | A4 A2c2 B4 A4  | 
w:  Şe ker  lo kum lu  hel va    |  Hel va cı  hel va    | 
A2A2 A2c2 B2A2 A4  | A2A2 A2c2 B2A2 A4  | \
w:  Ken dir  to hum lu  hel va    |  Şe ker  lo kum lu  hel va    | 
e2=f2 d2e2 c2d2 B2A2  | 
w:  ARANAĞME  | 
c2d2 B2c2 B2A2 A4  | e2=f2 d2e2 c2d2 B2A2  | \
w:   |  ARANAĞME  | 
c2d2 B2c2 B2A2 A4  | 
w:   | 
c2d2 e2=f2 e2f2 .e4  | =f2g2 e2f2 d2e2 .d4  | \
w:  Ça dır_ al tı  mi na re    |  El_ et tim_ es ki  yâ re    | 
c2d2 e2=f2 e2f2 .e4  | 
w:  Ça dır_ al tı  mi na re    | 
=f2g2 e2f2 d2e2 .d4  | e2=f2 d2e2 c2d2 B2A2  | \
w:  El_ et tim_ es ki  yâ re    |  A nam  kur ban  ben  kur ban  da    | 
c2d2 B2c2 B2A2 A4  | 
w:  Set re  pan tol lu  yâ re    | 
e2=f2 d2e2 c2d2 B2A2  | c2d2 B2c2 B2A2 A4  | \
w:  A nam  kur ban  ben  kur ban  da    |  Set re  pan tol lu  yâ re    | 
A4 A2c2 B4 A4  | A2A2 A2c2 B2A2 A4  | 
w:  Hel va cı  hel va    |  Ken dir  to hum lu  hel va    | 
A2A2 A2c2 B2A2 A4  | A4 A2c2 B4 A4  | \
w:  Şe ker  lo kum lu  hel va    |  Hel va cı  hel va    | 
A2A2 A2c2 B2A2 A4  | A2A2 A2c2 B2A2 A4  | 
w:  Ken dir  to hum lu  hel va    |  Şe ker  lo kum lu  hel va    | 
|


